asset/svg/menu/powerMenu.svg

<svg version="1.0" id="Calque_52" xmlns="http://www.w3.org/2000/svg" x="0" y="0" viewBox="0 0 100 150" style="enable-background:new 0 0 100 150" xml:space="preserve"><style>.st1{fill:#b42025}.st2{fill:#e86724}</style><g id="power"><g id="圖層_8_拷貝_3_"><path id="XMLID_8_" class="st1" d="m35.2 90.5 1.5-2.2 16.4 10-7.6 13.2s-2.8 5.2-11.7 1.6c-9-3.7-9-12.3-9-12.3l10.4-10.3z"/><path id="XMLID_1_" class="st1" d="M59.9 93s18-30.7 18.3-31.8c.3-1.1-4.7-17.6-4.7-17.6l-3.3-4.3-14.3 9.1-19.5 33.5-5.6-3.2-6.5 1.3 3.3 4.3 33.5 19.4 3.2-5.6-3.3-4.4-1.1-.7zm-6.7-1.4c.1-.1-11.2-6.5-11.2-6.5l19.4-33.5 8.8-2.4 2.4 8.8S53.2 91.7 53.2 91.6z"/></g><g id="圖層_8_拷貝_2_"><path id="XMLID_4_" class="st2" d="m31.9 86.2 16.8 9.7-6.4 11.2s-3.3 5.7-11.6.7c-8.3-4.9-5.1-10.4-5.1-10.4l6.3-11.2z"/><path id="XMLID_2_" class="st2" d="M55.5 90.5S74.5 58 74.9 57c.3-1.1-4.7-17.6-4.7-17.6L52.5 44 33.1 77.6l-5.6-3.2-3.2 5.6 33.5 19.4 3.2-5.6-5.5-3.3zm-5.6-3.3c.1-.1-11.2-6.5-11.2-6.5l19.4-33.5 8.8-2.4 2.4 8.8c0 .1-19.5 33.8-19.4 33.6z"/></g></g></svg>

<?xml version="1.0" encoding="utf-8"?>
<!-- Generator: Adobe Illustrator 19.0.0, SVG Export Plug-In . SVG Version: 6.00 Build 0)  -->
<svg version="1.0" id="Calque_52" xmlns="http://www.w3.org/2000/svg" xmlns:xlink="http://www.w3.org/1999/xlink" x="0px" y="0px"
	 viewBox="0 0 100 150" style="enable-background:new 0 0 100 150;" xml:space="preserve">
<style type="text/css">
	.st0{display:none;fill:#484748;}
	.st1{fill:#B42025;}
	.st2{fill:#E86724;}
</style>
<g id="power">
	<rect id="XMLID_9_" class="st0" width="100" height="150"/>
	<g id="圖層_8_拷貝_3_">
		<path id="XMLID_8_" class="st1" d="M35.2,90.5l1.5-2.2l16.4,10l-7.6,13.2c0,0-2.8,5.2-11.7,1.6c-9-3.7-9-12.3-9-12.3L35.2,90.5z"
			/>
		<path id="XMLID_1_" class="st1" d="M59.9,93c0,0,18-30.7,18.3-31.8c0.3-1.1-4.7-17.6-4.7-17.6l-3.3-4.3l-14.3,9.1L36.4,81.9
			l-5.6-3.2L24.3,80l3.3,4.3l33.5,19.4l3.2-5.6L61,93.7L59.9,93z M53.2,91.6c0.1-0.1-11.2-6.5-11.2-6.5l19.4-33.5l8.8-2.4l2.4,8.8
			C72.6,58,53.2,91.7,53.2,91.6z"/>
	</g>
	<g id="圖層_8_拷貝_2_">
		<path id="XMLID_4_" class="st2" d="M31.9,86.2l16.8,9.7l-6.4,11.2c0,0-3.3,5.7-11.6,0.7c-8.3-4.9-5.1-10.4-5.1-10.4L31.9,86.2z"/>
		<path id="XMLID_2_" class="st2" d="M55.5,90.5c0,0,19-32.5,19.4-33.5c0.3-1.1-4.7-17.6-4.7-17.6L52.5,44L33.1,77.6l-5.6-3.2
			L24.3,80l33.5,19.4l3.2-5.6L55.5,90.5z M49.9,87.2c0.1-0.1-11.2-6.5-11.2-6.5l19.4-33.5l8.8-2.4l2.4,8.8
			C69.3,53.7,49.8,87.4,49.9,87.2z"/>
	</g>
</g>
</svg>
